docs/img/icons/delivery-tracking.svg

<svg width="50" height="50" viewBox="0 0 50 50" fill="none" xmlns="http://www.w3.org/2000/svg">
<g clip-path="url(#clip0_3300_11540)">
<path fill-rule="evenodd" clip-rule="evenodd" d="M42.9688 5.46875C42.9688 4.75052 42.8273 4.03932 42.5525 3.37577C42.2776 2.71222 41.8747 2.10931 41.3668 1.60148C40.8589 1.09365 40.2559 0.690849 39.5923 0.416064C38.9287 0.14128 38.2175 -0.000102549 37.4993 5.58068e-08H14.0618C12.6114 5.58069e-08 11.2204 0.576166 10.1948 1.60176C9.1692 2.62735 8.59302 4.01835 8.59302 5.46875V7.03125C8.59302 7.23845 8.67534 7.43716 8.82185 7.58368C8.96836 7.73019 9.16707 7.8125 9.37427 7.8125H42.1868C42.394 7.8125 42.5927 7.73019 42.7392 7.58368C42.8857 7.43716 42.968 7.23845 42.968 7.03125V5.46875H42.9688ZM41.4055 5.46875V6.25H10.1555V5.46875C10.1555 4.43275 10.5671 3.43918 11.2996 2.70661C12.0322 1.97405 13.0258 1.5625 14.0618 1.5625H37.4993C38.5353 1.5625 39.5289 1.97405 40.2614 2.70661C40.994 3.43918 41.4055 4.43275 41.4055 5.46875Z" fill="#397345"/>
<path fill-rule="evenodd" clip-rule="evenodd" d="M35.1328 0.971091C35.1616 0.855896 35.1638 0.735639 35.1392 0.619459C35.1147 0.503279 35.0639 0.394231 34.9908 0.30061C34.9178 0.206989 34.8243 0.131257 34.7176 0.0791669C34.6109 0.0270766 34.4937 3.12184e-06 34.3749 0H17.1874C17.0687 3.12184e-06 16.9515 0.0270766 16.8448 0.0791669C16.7381 0.131257 16.6446 0.206989 16.5716 0.30061C16.4985 0.394231 16.4477 0.503279 16.4231 0.619459C16.3986 0.735639 16.4008 0.855896 16.4296 0.971091L16.914 2.9125C17.041 3.41966 17.3339 3.86982 17.7461 4.19143C18.1583 4.51305 18.6662 4.68765 19.189 4.6875H32.3734C32.8959 4.68731 33.4035 4.51254 33.8154 4.19096C34.2272 3.86937 34.5199 3.4194 34.6468 2.9125L35.1328 0.971091ZM33.3742 1.5625L33.1312 2.53359C33.0891 2.70267 32.9916 2.85278 32.8543 2.95998C32.7169 3.06717 32.5476 3.12527 32.3734 3.125H19.189C19.0148 3.12527 18.8455 3.06717 18.7081 2.95998C18.5708 2.85278 18.4733 2.70267 18.4312 2.53359L18.1874 1.5625H33.3734H33.3742ZM17.9671 28.9062C17.9671 28.6992 17.8849 28.5006 17.7386 28.3541C17.5922 28.2076 17.3937 28.1252 17.1867 28.125H7.81166C7.60446 28.125 7.40576 28.2073 7.25924 28.3538C7.11273 28.5003 7.03041 28.699 7.03041 28.9062V35.1562C7.03041 35.7779 7.27735 36.374 7.71689 36.8135C8.15643 37.2531 8.75256 37.5 9.37416 37.5H15.6242C16.2458 37.5 16.8419 37.2531 17.2814 36.8135C17.721 36.374 17.9679 35.7779 17.9679 35.1562L17.9671 28.9062ZM16.4062 29.6875V35.1562C16.4062 35.3634 16.3239 35.5622 16.1774 35.7087C16.0309 35.8552 15.8321 35.9375 15.6249 35.9375H9.37495C9.16775 35.9375 8.96903 35.8552 8.82252 35.7087C8.676 35.5622 8.5937 35.3634 8.5937 35.1562V29.6875H16.4062ZM31.6406 35.9375H21.0937C20.8865 35.9375 20.6878 36.0198 20.5413 36.1663C20.3948 36.3128 20.3124 36.5116 20.3124 36.7188C20.3124 36.9259 20.3948 37.1247 20.5413 37.2712C20.6878 37.4177 20.8865 37.5 21.0937 37.5H31.6406C31.8478 37.5 32.0465 37.4177 32.193 37.2712C32.3395 37.1247 32.4218 36.9259 32.4218 36.7188C32.4218 36.5116 32.3395 36.3128 32.193 36.1663C32.0465 36.0198 31.8478 35.9375 31.6406 35.9375ZM8.20307 42.1875C6.0476 42.1875 4.29761 43.9375 4.29761 46.0938C4.29761 48.25 6.04761 50 8.20386 50C10.3593 50 12.1101 48.25 12.1101 46.0938C12.1101 43.9375 10.3593 42.1875 8.20386 42.1875H8.20307ZM8.20307 43.75C9.49682 43.75 10.5476 44.8008 10.5476 46.0938C10.5476 47.3867 9.49683 48.4375 8.20386 48.4375C7.58226 48.4375 6.98611 48.1906 6.54657 47.751C6.10704 47.3115 5.86011 46.7154 5.86011 46.0938C5.86011 45.4721 6.10704 44.876 6.54657 44.4365C6.98611 43.9969 7.58226 43.75 8.20386 43.75H8.20307ZM27.3437 42.1875C25.1882 42.1875 23.4382 43.9375 23.4382 46.0938C23.4382 48.25 25.1882 50 27.3445 50C29.5 50 31.2499 48.25 31.2499 46.0938C31.2499 43.9375 29.4999 42.1875 27.3437 42.1875ZM27.3437 43.75C27.9653 43.75 28.5614 43.9969 29.001 44.4365C29.4405 44.876 29.6874 45.4721 29.6874 46.0938C29.6874 46.7154 29.4405 47.3115 29.001 47.751C28.5614 48.1906 27.9653 48.4375 27.3437 48.4375C26.7221 48.4375 26.1259 48.1906 25.6864 47.751C25.2469 47.3115 24.9999 46.7154 24.9999 46.0938C24.9999 45.4721 25.2469 44.876 25.6864 44.4365C26.1259 43.9969 26.7221 43.75 27.3437 43.75Z" fill="#397345"/>
<path fill-rule="evenodd" clip-rule="evenodd" d="M7.03125 29.6875H17.9688C18.176 29.6875 18.3747 29.6052 18.5212 29.4587C18.6677 29.3122 18.75 29.1135 18.75 28.9062C18.75 28.699 18.6677 28.5003 18.5212 28.3538C18.3747 28.2073 18.176 28.125 17.9688 28.125H7.03125C6.82405 28.125 6.62534 28.2073 6.47882 28.3538C6.33231 28.5003 6.25 28.699 6.25 28.9062C6.25 29.1135 6.33231 29.3122 6.47882 29.4587C6.62534 29.6052 6.82405 29.6875 7.03125 29.6875Z" fill="#397345"/>
<path fill-rule="evenodd" clip-rule="evenodd" d="M14.8438 28.9062C14.8438 28.699 14.7614 28.5003 14.6149 28.3538C14.4684 28.2073 14.2697 28.125 14.0625 28.125H10.9375C10.7303 28.125 10.5316 28.2073 10.3851 28.3538C10.2386 28.5003 10.1562 28.699 10.1562 28.9062V31.6406C10.1563 32.1586 10.362 32.6554 10.7283 33.0217C11.0946 33.388 11.5914 33.5937 12.1094 33.5937H12.8906C13.4086 33.5937 13.9054 33.388 14.2717 33.0217C14.638 32.6554 14.8438 32.1586 14.8438 31.6406V28.9062ZM13.2812 29.6875V31.6406C13.281 31.7442 13.2398 31.8434 13.1666 31.9166C13.0934 31.9898 12.9942 32.031 12.8906 32.0312H12.1094C12.0059 32.0308 11.9068 31.9895 11.8336 31.9164C11.7605 31.8432 11.7192 31.7441 11.7188 31.6406V29.6875H13.2812ZM42.0563 49.9836C42.2471 50.0225 42.4456 49.9887 42.6128 49.8888C42.78 49.7889 42.9039 49.6302 42.9602 49.4437C44.0665 45.7746 45.7526 42.306 47.9547 39.1695L47.9555 39.168C48.7798 37.9899 49.2209 36.5863 49.2188 35.1484C49.2188 31.268 46.068 28.1172 42.1875 28.1172C38.307 28.1172 35.1562 31.268 35.1562 35.1484C35.1562 36.6453 35.625 38.0336 36.4445 39.1602C38.6468 42.2971 40.3329 45.7662 41.4391 49.4359C41.5641 49.8492 41.8766 49.9562 42.0563 49.9836ZM42.2016 46.7977C41.0818 43.7697 39.5756 40.8991 37.7203 38.257L37.7117 38.2453C37.06 37.3448 36.7121 36.26 36.7188 35.1484C36.7188 32.1305 39.1695 29.6797 42.1875 29.6797C45.2055 29.6797 47.6562 32.1305 47.6562 35.1484C47.6577 36.2661 47.3151 37.3572 46.675 38.2734C44.8233 40.9105 43.3197 43.7756 42.2016 46.7977Z" fill="#397345"/>
<path fill-rule="evenodd" clip-rule="evenodd" d="M42.1867 32.0312C40.4617 32.0312 39.0617 33.4305 39.0617 35.1562C39.0617 36.8805 40.4617 38.2812 42.1867 38.2812C43.9117 38.2812 45.3117 36.8805 45.3117 35.1562C45.3117 33.4305 43.9117 32.0312 42.1867 32.0312ZM42.1867 33.5938C42.6011 33.5939 42.9985 33.7586 43.2914 34.0517C43.5844 34.3448 43.7489 34.7422 43.7488 35.1566C43.7487 35.571 43.584 35.9684 43.2909 36.2614C42.9978 36.5543 42.6003 36.7189 42.1859 36.7188C41.7715 36.7188 41.3741 36.5541 41.0811 36.2611C40.7881 35.9681 40.6234 35.5707 40.6234 35.1562C40.6234 34.7418 40.7881 34.3444 41.0811 34.0514C41.3741 33.7584 41.7715 33.5938 42.1859 33.5938H42.1867ZM31.25 10.1562C26.9375 10.1562 23.4375 13.6562 23.4375 17.9688C23.4375 22.2797 26.9375 25.7812 31.25 25.7812C35.5609 25.7812 39.0625 22.2797 39.0625 17.9688C39.0625 13.6562 35.5609 10.1562 31.25 10.1562ZM31.25 11.7188C34.6992 11.7188 37.5 14.5188 37.5 17.9688C37.5 21.418 34.6992 24.218 31.25 24.218C27.8 24.218 25 21.418 25 17.968C25 14.5187 27.8 11.718 31.25 11.718V11.7188Z" fill="#397345"/>
<path fill-rule="evenodd" clip-rule="evenodd" d="M30.4688 10.9375V12.5C30.4688 12.7072 30.5511 12.9059 30.6976 13.0524C30.8441 13.1989 31.0428 13.2812 31.25 13.2812C31.4572 13.2812 31.6559 13.1989 31.8024 13.0524C31.9489 12.9059 32.0312 12.7072 32.0312 12.5V10.9375C32.0312 10.7303 31.9489 10.5316 31.8024 10.3851C31.6559 10.2386 31.4572 10.1562 31.25 10.1562C31.0428 10.1562 30.8441 10.2386 30.6976 10.3851C30.5511 10.5316 30.4688 10.7303 30.4688 10.9375ZM35.6688 12.4445L34.5641 13.5492C34.4218 13.6966 34.343 13.8939 34.3448 14.0988C34.3466 14.3036 34.4287 14.4995 34.5736 14.6444C34.7184 14.7892 34.9144 14.8714 35.1192 14.8732C35.3241 14.875 35.5214 14.7962 35.6688 14.6539L36.7734 13.5492C36.9158 13.4019 36.9945 13.2045 36.9927 12.9997C36.9909 12.7948 36.9088 12.5989 36.7639 12.454C36.6191 12.3092 36.4231 12.227 36.2183 12.2253C36.0134 12.2235 35.8161 12.3022 35.6688 12.4445ZM38.2812 17.1875H36.7188C36.5115 17.1875 36.3128 17.2698 36.1663 17.4163C36.0198 17.5628 35.9375 17.7615 35.9375 17.9688C35.9375 18.176 36.0198 18.3747 36.1663 18.5212C36.3128 18.6677 36.5115 18.75 36.7188 18.75H38.2812C38.4885 18.75 38.6872 18.6677 38.8337 18.5212C38.9802 18.3747 39.0625 18.176 39.0625 17.9688C39.0625 17.7615 38.9802 17.5628 38.8337 17.4163C38.6872 17.2698 38.4885 17.1875 38.2812 17.1875ZM36.7734 22.3883L35.6688 21.2836C35.5214 21.1413 35.3241 21.0625 35.1192 21.0643C34.9144 21.0661 34.7184 21.1483 34.5736 21.2931C34.4287 21.438 34.3466 21.6339 34.3448 21.8387C34.343 22.0436 34.4218 22.2409 34.5641 22.3883L35.6688 23.493C35.8152 23.6396 36.014 23.722 36.2212 23.722C36.4285 23.7221 36.6272 23.6399 36.7738 23.4934C36.9204 23.3469 37.0028 23.1481 37.0029 22.9409C37.003 22.7337 36.9207 22.5349 36.7742 22.3883H36.7734ZM30.4688 23.4375V25C30.4688 25.2072 30.5511 25.4059 30.6976 25.5524C30.8441 25.6989 31.0428 25.7812 31.25 25.7812C31.4572 25.7812 31.6559 25.6989 31.8024 25.5524C31.9489 25.4059 32.0312 25.2072 32.0312 25V23.4375C32.0312 23.2303 31.9489 23.0316 31.8024 22.8851C31.6559 22.7386 31.4572 22.6562 31.25 22.6562C31.0428 22.6562 30.8441 22.7386 30.6976 22.8851C30.5511 23.0316 30.4688 23.2303 30.4688 23.4375ZM26.8305 21.2836L25.7258 22.3883C25.5792 22.5348 25.4968 22.7335 25.4967 22.9407C25.4966 23.148 25.5789 23.3468 25.7254 23.4934C25.8719 23.64 26.0706 23.7223 26.2779 23.7224C26.4851 23.7225 26.6839 23.6402 26.8305 23.4938L27.9352 22.3883C28.0775 22.2409 28.1562 22.0436 28.1544 21.8387C28.1527 21.6339 28.0705 21.438 27.9256 21.2931C27.7808 21.1483 27.5848 21.0661 27.38 21.0643C27.1752 21.0625 26.9778 21.1413 26.8305 21.2836ZM25.7812 17.1875H24.2188C24.0115 17.1875 23.8128 17.2698 23.6663 17.4163C23.5198 17.5628 23.4375 17.7615 23.4375 17.9688C23.4375 18.176 23.5198 18.3747 23.6663 18.5212C23.8128 18.6677 24.0115 18.75 24.2188 18.75H25.7812C25.9885 18.75 26.1872 18.6677 26.3337 18.5212C26.4802 18.3747 26.5625 18.176 26.5625 17.9688C26.5625 17.7615 26.4802 17.5628 26.3337 17.4163C26.1872 17.2698 25.9885 17.1875 25.7812 17.1875ZM27.9344 13.55L26.8297 12.4453C26.6823 12.303 26.485 12.2243 26.2802 12.226C26.0753 12.2278 25.8794 12.31 25.7345 12.4548C25.5897 12.5997 25.5075 12.7956 25.5057 13.0005C25.5039 13.2053 25.5827 13.4026 25.725 13.55L26.8297 14.6547C26.977 14.797 27.1744 14.8757 27.3792 14.874C27.5841 14.8722 27.78 14.79 27.9249 14.6452C28.0697 14.5003 28.1519 14.3044 28.1536 14.0995C28.1554 13.8947 28.0767 13.6973 27.9344 13.55Z" fill="#397345"/>
<path d="M31.2502 18.75C31.6817 18.75 32.0315 18.4002 32.0315 17.9688C32.0315 17.5373 31.6817 17.1875 31.2502 17.1875C30.8188 17.1875 30.469 17.5373 30.469 17.9688C30.469 18.4002 30.8188 18.75 31.2502 18.75Z" fill="#397345"/>
<path fill-rule="evenodd" clip-rule="evenodd" d="M8.59375 7.03125V22.6562C8.59375 22.8635 8.67606 23.0622 8.82257 23.2087C8.96909 23.3552 9.1678 23.4375 9.375 23.4375C9.5822 23.4375 9.78092 23.3552 9.92743 23.2087C10.0739 23.0622 10.1562 22.8635 10.1562 22.6562V7.03125C10.1562 6.82405 10.0739 6.62534 9.92743 6.47882C9.78092 6.33231 9.5822 6.25 9.375 6.25C9.1678 6.25 8.96909 6.33231 8.82257 6.47882C8.67606 6.62534 8.59375 6.82405 8.59375 7.03125ZM41.4062 7.03125V28.9062C41.4062 29.1135 41.4886 29.3122 41.6351 29.4587C41.7816 29.6052 41.9803 29.6875 42.1875 29.6875C42.3947 29.6875 42.5934 29.6052 42.7399 29.4587C42.8864 29.3122 42.9688 29.1135 42.9688 28.9062V7.03125C42.9688 6.82405 42.8864 6.62534 42.7399 6.47882C42.5934 6.33231 42.3947 6.25 42.1875 6.25C41.9803 6.25 41.7816 6.33231 41.6351 6.47882C41.4886 6.62534 41.4062 6.82405 41.4062 7.03125Z" fill="#397345"/>
<path fill-rule="evenodd" clip-rule="evenodd" d="M6.13672 44.5312C6.32734 44.5312 6.51094 44.4617 6.6539 44.3359C7.08126 43.9577 7.63243 43.7492 8.20312 43.75C8.79688 43.75 9.33906 43.9711 9.75235 44.3359C9.89531 44.4617 10.0789 44.5312 10.2695 44.5312H21.0938C21.301 44.5312 21.4997 44.4489 21.6462 44.3024C21.7927 44.1559 21.875 43.9572 21.875 43.75V24.2188C21.875 23.5969 21.6281 23.0008 21.1883 22.5617C20.9708 22.3439 20.7125 22.1712 20.4282 22.0533C20.1438 21.9355 19.839 21.8749 19.5312 21.875H5.46875C4.84688 21.875 4.25078 22.1219 3.81172 22.5617C3.59393 22.7792 3.42117 23.0375 3.30334 23.3218C3.1855 23.6062 3.1249 23.911 3.125 24.2188V43.75C3.125 43.9572 3.20731 44.1559 3.35382 44.3024C3.50034 44.4489 3.69905 44.5312 3.90625 44.5312H6.13672ZM5.86016 42.9688H4.6875V24.2188C4.68719 24.1161 4.70719 24.0143 4.74634 23.9194C4.78549 23.8245 4.84302 23.7382 4.91563 23.6656C4.98824 23.593 5.07449 23.5355 5.16942 23.4963C5.26434 23.4572 5.36607 23.4372 5.46875 23.4375H19.5312C19.6339 23.4372 19.7357 23.4572 19.8306 23.4963C19.9255 23.5355 20.0118 23.593 20.0844 23.6656C20.157 23.7382 20.2145 23.8245 20.2537 23.9194C20.2928 24.0143 20.3128 24.1161 20.3125 24.2188V42.9688H10.5461C9.87086 42.4604 9.0483 42.1861 8.20312 42.1875C7.35795 42.1861 6.53539 42.4604 5.86016 42.9688Z" fill="#397345"/>
<path fill-rule="evenodd" clip-rule="evenodd" d="M25.2773 44.5312C25.4679 44.5312 25.6515 44.4617 25.7945 44.3359C26.2218 43.9577 26.773 43.7492 27.3437 43.75C27.9374 43.75 28.4796 43.9711 28.8929 44.3359C29.0359 44.4617 29.2195 44.5312 29.4101 44.5312H32.0312C32.2384 44.5312 32.4371 44.4489 32.5836 44.3024C32.7301 44.1559 32.8124 43.9572 32.8124 43.75V37.1234C32.8124 36.725 32.7109 36.3336 32.5171 35.9852L29.2546 30.1117C29.0516 29.7463 28.7545 29.4418 28.3942 29.2299C28.0339 29.0179 27.6234 28.9062 27.2054 28.9063H21.0937C20.8865 28.9063 20.6878 28.9886 20.5413 29.1351C20.3948 29.2816 20.3124 29.4803 20.3124 29.6875V43.75C20.3124 43.9572 20.3948 44.1559 20.5413 44.3024C20.6878 44.4489 20.8865 44.5312 21.0937 44.5312H25.2773ZM25.0007 42.9688H21.8749V30.4688H27.2054C27.3447 30.4687 27.4814 30.506 27.6015 30.5766C27.7215 30.6472 27.8205 30.7486 27.8882 30.8703L31.1515 36.7445C31.2163 36.8603 31.2502 36.9908 31.2499 37.1234V42.9688H29.6867C29.0114 42.4604 28.1889 42.1861 27.3437 42.1875C26.4985 42.1861 25.676 42.4604 25.0007 42.9688ZM8.20307 42.1875C6.0476 42.1875 4.29761 43.9375 4.29761 46.0938C4.29761 48.25 6.04761 50 8.20386 50C10.3593 50 12.1101 48.25 12.1101 46.0938C12.1101 43.9375 10.3593 42.1875 8.20386 42.1875H8.20307ZM8.20307 43.75C9.49682 43.75 10.5476 44.8008 10.5476 46.0938C10.5476 47.3867 9.49683 48.4375 8.20386 48.4375C7.58226 48.4375 6.98611 48.1906 6.54657 47.751C6.10704 47.3115 5.86011 46.7154 5.86011 46.0938C5.86011 45.4721 6.10704 44.876 6.54657 44.4365C6.98611 43.9969 7.58226 43.75 8.20386 43.75H8.20307Z" fill="#397345"/>
<path fill-rule="evenodd" clip-rule="evenodd" d="M29.4101 42.9688C29.2514 42.9687 29.0964 43.0169 28.9658 43.1071C28.8352 43.1973 28.7352 43.3251 28.679 43.4736C28.6228 43.622 28.6132 43.7841 28.6515 43.9381C28.6897 44.0922 28.7739 44.231 28.893 44.3359C29.2182 44.6217 29.4577 44.9921 29.5848 45.4059C29.712 45.8197 29.7219 46.2606 29.6133 46.6797C29.5838 46.7952 29.581 46.9159 29.6053 47.0325C29.6295 47.1492 29.68 47.2589 29.753 47.3531C29.8261 47.4472 29.9196 47.5235 30.0266 47.5761C30.1336 47.6286 30.2511 47.656 30.3703 47.6563H32.8391C33.4536 47.656 34.0428 47.4118 34.4773 46.9773C34.9118 46.5428 35.156 45.9536 35.1562 45.3391V45.3375C35.1564 45.0264 35.0952 44.7183 34.9762 44.4309C34.8571 44.1435 34.6827 43.8823 34.4627 43.6623C34.2427 43.4423 33.9815 43.2679 33.6941 43.1489C33.4067 43.0298 33.0986 42.9686 32.7875 42.9688H29.4101ZM10.2695 42.9688C10.1108 42.9687 9.95582 43.0169 9.82521 43.1071C9.69459 43.1973 9.59454 43.3251 9.53838 43.4736C9.48222 43.622 9.47262 43.7841 9.51084 43.9381C9.54906 44.0922 9.6333 44.231 9.75235 44.3359C10.0774 44.6215 10.3169 44.9915 10.4442 45.405C10.5715 45.8185 10.5816 46.2592 10.4734 46.6781C10.4439 46.7935 10.4412 46.9141 10.4653 47.0307C10.4895 47.1473 10.54 47.2568 10.613 47.3509C10.6859 47.4451 10.7794 47.5213 10.8863 47.5738C10.9931 47.6263 11.1106 47.6537 11.2297 47.6539L24.3172 47.6555C24.4363 47.6554 24.5539 47.6281 24.6608 47.5756C24.7678 47.5232 24.8613 47.447 24.9343 47.3528C25.0073 47.2586 25.0578 47.149 25.0819 47.0324C25.106 46.9157 25.1031 46.7951 25.0734 46.6797C24.9649 46.2606 24.9749 45.8195 25.1022 45.4057C25.2295 44.9919 25.4692 44.6216 25.7945 44.3359C25.9136 44.231 25.9978 44.0922 26.036 43.9381C26.0743 43.7841 26.0647 43.622 26.0085 43.4736C25.9523 43.3251 25.8523 43.1973 25.7217 43.1071C25.5911 43.0169 25.4361 42.9687 25.2773 42.9688H10.2695ZM6.65391 44.3359C6.77295 44.231 6.85719 44.0922 6.89541 43.9381C6.93364 43.7841 6.92403 43.622 6.86787 43.4736C6.81171 43.3251 6.71166 43.1973 6.58104 43.1071C6.45043 43.0169 6.29544 42.9687 6.13672 42.9688H3.12812C2.81991 42.9686 2.5147 43.0293 2.22996 43.1472C1.94523 43.2652 1.68656 43.4382 1.46875 43.6563C1.25068 43.8741 1.0777 44.1327 0.95973 44.4175C0.841759 44.7022 0.781111 45.0074 0.78125 45.3156V45.3172C0.781148 45.624 0.84149 45.9279 0.958836 46.2114C1.07618 46.4949 1.24823 46.7525 1.46515 46.9695C1.68208 47.1865 1.93963 47.3586 2.22309 47.476C2.50655 47.5935 2.81037 47.6539 3.11719 47.6539H5.17578C5.29488 47.6537 5.41235 47.6262 5.51925 47.5737C5.62615 47.5212 5.71965 47.445 5.79265 47.3509C5.86566 47.2568 5.91623 47.1473 5.94052 47.0307C5.96481 46.9141 5.96217 46.7935 5.93281 46.6781C5.82463 46.2592 5.83476 45.8185 5.96206 45.405C6.08936 44.9915 6.32886 44.6215 6.65391 44.3359ZM31.25 46.0938C31.25 45.5383 31.1336 45.0102 30.925 44.5313H30.9242H32.7875C33.0011 44.5319 33.2059 44.617 33.3569 44.7681C33.508 44.9191 33.5931 45.1239 33.5938 45.3375V45.3391C33.5935 45.5392 33.514 45.731 33.3725 45.8725C33.231 46.014 33.0392 46.0935 32.8391 46.0938H31.25ZM23.4375 46.093L12.1094 46.0922C12.1094 45.5375 11.993 45.0094 11.7844 44.5313H11.7836H23.7633C23.5478 45.0237 23.4368 45.5555 23.4375 46.093ZM4.29688 46.0914H3.11719C2.91213 46.0912 2.71551 46.0097 2.57051 45.8647C2.42551 45.7197 2.34396 45.523 2.34375 45.318V45.3156C2.34396 45.1077 2.42666 44.9083 2.57372 44.7612C2.72077 44.6142 2.92016 44.5315 3.12812 44.5313H4.62188C4.40707 45.0233 4.29642 45.5545 4.29688 46.0914Z" fill="#397345"/>
</g>
<defs>
<clipPath id="clip0_3300_11540">
<rect width="50" height="50" fill="white"/>
</clipPath>
</defs>
</svg>

<svg width="50" height="50" fill="none" xmlns="http://www.w3.org/2000/svg"><g clip-path="url(#clip0_3300_11540)" fill="#397345"><path fill-rule="evenodd" clip-rule="evenodd" d="M42.969 5.469A5.47 5.47 0 0037.499 0H14.062a5.469 5.469 0 00-5.469 5.469V7.03a.781.781 0 00.781.782h32.813a.781.781 0 00.781-.782V5.47zm-1.563 0v.781h-31.25v-.781a3.907 3.907 0 013.906-3.907h23.437a3.906 3.906 0 013.907 3.907z"/><path fill-rule="evenodd" clip-rule="evenodd" d="M35.133.971A.782.782 0 0034.375 0H17.187a.781.781 0 00-.757.971l.484 1.942a2.345 2.345 0 002.275 1.775h13.184a2.345 2.345 0 002.274-1.775L35.133.97zm-1.759.592l-.243.97a.78.78 0 01-.758.592H19.19a.78.78 0 01-.758-.591l-.244-.971h15.187zM17.967 28.905a.781.781 0 00-.78-.781H7.812a.781.781 0 00-.782.781v6.25A2.344 2.344 0 009.374 37.5h6.25a2.343 2.343 0 002.344-2.344v-6.25zm-1.56.782v5.468a.781.781 0 01-.782.782h-6.25a.781.781 0 01-.781-.782v-5.468h7.812zm15.234 6.25H21.094a.781.781 0 100 1.562H31.64a.781.781 0 100-1.563zm-23.438 6.25a3.908 3.908 0 00-3.905 3.906A3.908 3.908 0 008.204 50a3.908 3.908 0 003.906-3.906 3.908 3.908 0 00-3.906-3.907zm0 1.562a2.346 2.346 0 012.345 2.344 2.346 2.346 0 01-4.001 1.657 2.344 2.344 0 011.657-4.001zm19.14-1.563a3.908 3.908 0 00-3.905 3.907A3.908 3.908 0 0027.345 50a3.907 3.907 0 00-.001-7.813zm0 1.563a2.344 2.344 0 110 4.687 2.344 2.344 0 010-4.687z"/><path fill-rule="evenodd" clip-rule="evenodd" d="M7.031 29.688H17.97a.781.781 0 100-1.563H7.03a.781.781 0 100 1.563z"/><path fill-rule="evenodd" clip-rule="evenodd" d="M14.844 28.906a.781.781 0 00-.781-.781h-3.126a.781.781 0 00-.78.781v2.735a1.954 1.954 0 001.952 1.953h.782a1.953 1.953 0 001.953-1.953v-2.735zm-1.563.782v1.953a.391.391 0 01-.39.39h-.782a.392.392 0 01-.39-.39v-1.953h1.562zm28.775 20.296a.78.78 0 00.904-.54 35.933 35.933 0 014.995-10.275v-.001a6.994 6.994 0 001.264-4.02c0-3.88-3.151-7.03-7.032-7.03a7.035 7.035 0 00-7.03 7.03 6.79 6.79 0 001.288 4.012 35.931 35.931 0 014.994 10.276.74.74 0 00.617.548zm.146-3.186a37.489 37.489 0 00-4.482-8.541l-.008-.012c-.652-.9-1-1.985-.993-3.097a5.472 5.472 0 015.468-5.468 5.472 5.472 0 015.47 5.468 5.444 5.444 0 01-.982 3.125 37.442 37.442 0 00-4.473 8.525z"/><path fill-rule="evenodd" clip-rule="evenodd" d="M42.187 32.031a3.126 3.126 0 10.001 6.252 3.126 3.126 0 00-.001-6.252zm0 1.563a1.562 1.562 0 110 3.124 1.562 1.562 0 01-.001-3.124zM31.25 10.156a7.815 7.815 0 00-7.813 7.813c0 4.31 3.5 7.812 7.813 7.812a7.817 7.817 0 007.813-7.812 7.816 7.816 0 00-7.813-7.813zm0 1.563c3.45 0 6.25 2.8 6.25 6.25 0 3.449-2.8 6.249-6.25 6.249s-6.25-2.8-6.25-6.25 2.8-6.25 6.25-6.25z"/><path fill-rule="evenodd" clip-rule="evenodd" d="M30.469 10.938V12.5a.781.781 0 101.562 0v-1.563a.781.781 0 10-1.562 0zm5.2 1.506l-1.105 1.105a.781.781 0 001.105 1.105l1.104-1.105a.78.78 0 00-1.104-1.104zm2.612 4.743H36.72a.781.781 0 100 1.563h1.562a.781.781 0 100-1.563zm-1.508 5.201l-1.104-1.104a.781.781 0 00-1.105 1.104l1.105 1.105a.78.78 0 101.105-1.105zm-6.304 1.05V25a.781.781 0 101.562 0v-1.563a.781.781 0 10-1.562 0zm-3.639-2.154l-1.104 1.104a.781.781 0 101.105 1.106l1.104-1.106a.781.781 0 00-1.104-1.104zm-1.049-4.096H24.22a.781.781 0 100 1.562h1.562a.781.781 0 100-1.563zm2.153-3.638l-1.104-1.105a.782.782 0 00-1.105 1.105l1.105 1.105a.782.782 0 001.104-1.105z"/><path d="M31.25 18.75a.781.781 0 100-1.563.781.781 0 000 1.563z"/><path fill-rule="evenodd" clip-rule="evenodd" d="M8.594 7.031v15.625a.781.781 0 101.562 0V7.031a.781.781 0 00-1.562 0zm32.812 0v21.875a.781.781 0 001.563 0V7.031a.781.781 0 00-1.563 0z"/><path fill-rule="evenodd" clip-rule="evenodd" d="M6.137 44.531c.19 0 .374-.07.517-.195a2.333 2.333 0 011.55-.586 2.33 2.33 0 011.548.586.782.782 0 00.518.195h10.824a.781.781 0 00.781-.781V24.219a2.341 2.341 0 00-2.344-2.344H5.47a2.341 2.341 0 00-2.344 2.344V43.75a.781.781 0 00.781.781h2.23zM5.86 42.97H4.687V24.22a.78.78 0 01.782-.782H19.53a.78.78 0 01.782.782v18.75h-9.767a3.885 3.885 0 00-2.343-.782 3.884 3.884 0 00-2.343.782z"/><path fill-rule="evenodd" clip-rule="evenodd" d="M25.277 44.531c.19 0 .374-.07.517-.195a2.333 2.333 0 011.55-.586c.593 0 1.136.221 1.549.586a.783.783 0 00.517.195h2.621a.781.781 0 00.781-.781v-6.627c0-.398-.101-.79-.295-1.138l-3.262-5.873a2.343 2.343 0 00-2.05-1.206h-6.111a.781.781 0 00-.782.782V43.75a.781.781 0 00.782.781h4.183zm-.276-1.562h-3.126v-12.5h5.33a.78.78 0 01.683.401l3.263 5.875a.772.772 0 01.099.378v5.846h-1.563a3.885 3.885 0 00-2.343-.782A3.885 3.885 0 0025 42.97zm-16.798-.782a3.908 3.908 0 00-3.905 3.907A3.908 3.908 0 008.204 50a3.908 3.908 0 003.906-3.906 3.908 3.908 0 00-3.906-3.907zm0 1.563a2.346 2.346 0 012.345 2.344 2.346 2.346 0 01-4.001 1.657 2.344 2.344 0 011.657-4.001z"/><path fill-rule="evenodd" clip-rule="evenodd" d="M29.41 42.969a.78.78 0 00-.517 1.367 2.339 2.339 0 01.72 2.344.782.782 0 00.757.976h2.47a2.318 2.318 0 002.316-2.317v-.002a2.366 2.366 0 00-2.368-2.368H29.41zm-19.14 0a.78.78 0 00-.518 1.367 2.34 2.34 0 01.721 2.342.783.783 0 00.757.976l13.087.002a.781.781 0 00.756-.976 2.34 2.34 0 01.721-2.344.78.78 0 00-.517-1.367H10.27zm-3.616 1.367a.78.78 0 00-.517-1.367H3.128a2.344 2.344 0 00-2.347 2.347v.001a2.336 2.336 0 002.336 2.337h2.059a.782.782 0 00.757-.976 2.34 2.34 0 01.72-2.342zm24.596 1.758c0-.556-.116-1.084-.325-1.563h1.863a.808.808 0 01.806.806v.002a.756.756 0 01-.755.755H31.25zm-7.813-.001H12.11c0-.556-.116-1.084-.325-1.562h11.98a3.883 3.883 0 00-.326 1.562zm-19.14-.002h-1.18a.774.774 0 01-.773-.773v-.002a.785.785 0 01.784-.785h1.494a3.89 3.89 0 00-.325 1.56z"/></g><defs><clipPath id="clip0_3300_11540"><path fill="#fff" d="M0 0h50v50H0z"/></clipPath></defs></svg>
